images/folder.dto.svg

<?xml version="1.0" encoding="UTF-8" standalone="no"?>
<!-- Created with Inkscape (http://www.inkscape.org/) -->

<svg
   width="500"
   height="500"
   viewBox="0 0 500 500"
   version="1.1"
   id="svg1"
   inkscape:version="1.3.2 (091e20ef0f, 2023-11-25, custom)"
   sodipodi:docname="folder.dto.svg"
   xml:space="preserve"
   xmlns:inkscape="http://www.inkscape.org/namespaces/inkscape"
   xmlns:sodipodi="http://sodipodi.sourceforge.net/DTD/sodipodi-0.dtd"
   xmlns="http://www.w3.org/2000/svg"
   xmlns:svg="http://www.w3.org/2000/svg"><sodipodi:namedview
     id="namedview1"
     pagecolor="#505050"
     bordercolor="#eeeeee"
     borderopacity="1"
     inkscape:showpageshadow="0"
     inkscape:pageopacity="0"
     inkscape:pagecheckerboard="0"
     inkscape:deskcolor="#505050"
     inkscape:document-units="px"
     inkscape:zoom="0.96390292"
     inkscape:cx="244.31921"
     inkscape:cy="251.58135"
     inkscape:window-width="1362"
     inkscape:window-height="744"
     inkscape:window-x="0"
     inkscape:window-y="20"
     inkscape:window-maximized="0"
     inkscape:current-layer="layer1"
     showguides="true"><sodipodi:guide
       position="250.02518,350.60736"
       orientation="-0.99997769,0.0066803918"
       id="guide30"
       inkscape:locked="false" /><sodipodi:guide
       position="66.396728,247.89992"
       orientation="0,-1"
       id="guide53"
       inkscape:locked="false" /></sodipodi:namedview><defs
     id="defs1"><inkscape:path-effect
       effect="mirror_symmetry"
       start_point="341.76098,28.008642"
       end_point="341.76098,211.38431"
       center_point="341.76098,119.69648"
       id="path-effect3"
       is_visible="true"
       lpeversion="1.2"
       lpesatellites=""
       mode="free"
       discard_orig_path="false"
       fuse_paths="true"
       oposite_fuse="false"
       split_items="false"
       split_open="false"
       link_styles="false" /><inkscape:path-effect
       effect="mirror_symmetry"
       start_point="216.08168,129.12039"
       end_point="216.08168,402.6937"
       center_point="216.08168,265.90704"
       id="path-effect2"
       is_visible="true"
       lpeversion="1.2"
       lpesatellites=""
       mode="free"
       discard_orig_path="false"
       fuse_paths="true"
       oposite_fuse="false"
       split_items="false"
       split_open="false"
       link_styles="false" /><linearGradient
       id="swatch61"
       inkscape:swatch="solid"><stop
         style="stop-color:#5090d0;stop-opacity:1;"
         offset="0"
         id="stop61" /></linearGradient><linearGradient
       id="swatch30"
       inkscape:swatch="solid"><stop
         style="stop-color:#f9f9f9;stop-opacity:1;"
         offset="0"
         id="stop30" /></linearGradient><inkscape:perspective
       sodipodi:type="inkscape:persp3d"
       inkscape:vp_x="44.06818 : 315.96746 : 1"
       inkscape:vp_y="0 : 1000 : 0"
       inkscape:vp_z="480.74134 : 298.68846 : 1"
       inkscape:persp3d-origin="250 : 166.66667 : 1"
       id="perspective17" /></defs><g
     inkscape:label="Layer 1"
     inkscape:groupmode="layer"
     id="layer1"><path
       id="rect53-0"
       style="display:inline;opacity:0.14380811;fill:#00f03c;fill-opacity:0.3137255;fill-rule:nonzero;stroke:#00f03c;stroke-width:22.0622;stroke-linecap:butt;stroke-linejoin:round;stroke-dasharray:none;stroke-opacity:1;paint-order:markers fill stroke"
       d="m 462.68749,104.21979 c 0,-1.64895 -0.59137,-3.17324 -1.54688,-4.517583 v -48.26953 c 0,-5.97292 -5.36366,-10.78125 -12.02538,-10.78125 H 307.18359 c -6.66173,0 -12.02344,4.80833 -12.02344,10.78125 v 43.39063 H 51.087889 c -6.7206,0 -12.13086,4.19106 -12.13086,9.396483 v 341.68359 c 0,5.20542 5.41026,9.39453 12.13086,9.39453 H 450.55663 c 6.7206,0 12.13086,-4.18911 12.13086,-9.39453 z" /><path
       style="fill:none;stroke:#00f03c;stroke-width:50;stroke-linecap:round;stroke-linejoin:bevel;paint-order:markers fill stroke;stroke-opacity:1"
       d="M 43.979119,450.13181 V 98.591456"
       id="path1" /></g><g
     inkscape:groupmode="layer"
     id="layer2"
     inkscape:label="Layer 2"><path
       d="m 178.97821,233.5319 0.82874,177.8602 c 0.013,2.28711 1.27436,4.38298 3.28586,5.46417 l 142.26649,74.3818 c 0.92872,0.49488 1.94485,0.74438 2.96104,0.74438 0.004,0 0.007,0 0.013,0 0.42896,0.48654 0.90788,0.94394 1.47843,1.28494 0.98284,0.58635 2.09063,0.8816 3.20257,0.8816 1.02448,0 2.04065,-0.25368 2.96519,-0.75269 l 140.4674,-76.06598 c 2.01567,-1.09367 3.27753,-3.20199 3.27753,-5.48496 V 226.79525 c 0,-0.0541 -0.0208,-0.10397 -0.0208,-0.16219 -0.004,-0.0457 0.013,-0.0873 0.013,-0.13722 -0.007,-0.17879 -0.0791,-0.34098 -0.0915,-0.51565 -0.0541,-0.34099 -0.0914,-0.68198 -0.19572,-1.01048 -0.0751,-0.22872 -0.17076,-0.4325 -0.26653,-0.65288 -0.12912,-0.2911 -0.25822,-0.57804 -0.43313,-0.84416 -0.12911,-0.20794 -0.28317,-0.39505 -0.43727,-0.58634 -0.19574,-0.24119 -0.3998,-0.46575 -0.63303,-0.67783 -0.18324,-0.16632 -0.37897,-0.31606 -0.5872,-0.46159 -0.13328,-0.0914 -0.24572,-0.22039 -0.39147,-0.30355 -0.13326,-0.0833 -0.28736,-0.11644 -0.43312,-0.18714 -0.12081,-0.0624 -0.21656,-0.14971 -0.33733,-0.20375 l -144.75369,-70.0155 c -1.68665,-0.71108 -3.59819,-0.64454 -5.23904,0.17468 l -143.08701,74.48163 c -2.09894,1.05623 -3.42332,3.20198 -3.43579,5.54317 0,0.0373 0.0167,0.0705 0.0167,0.10398 -0.25404,0.69446 -0.43728,1.42634 -0.43313,2.19149 z M 459.04676,227.48139 332.94302,297.88361 199.4055,231.32379 328.95335,163.64949 Z M 339.25655,477.44042 V 308.65393 l 127.97364,-71.4127 v 170.86984 z"
       id="path1-7"
       style="fill:#00f03c;fill-opacity:1;stroke:none;stroke-width:4.16152;stroke-opacity:1" /><path
       style="opacity:1;fill:#00f03c;fill-opacity:1;stroke:none;stroke-width:35;stroke-linecap:round;stroke-miterlimit:10;stroke-opacity:1"
       d="M 341.76098,28.008642 H 322.24077 V 134.01066 h -31.69703 l 51.21724,52.27449 51.21724,-52.27449 H 361.28119 V 28.008642 Z"
       id="path3"
       inkscape:path-effect="#path-effect3"
       inkscape:original-d="M 341.76098,28.008642 H 322.24077 V 134.01066 h -31.69703 l 83.59209,85.31763"
       sodipodi:nodetypes="ccccc"
       transform="matrix(1.3844457,0,0,1.3844457,-144.38989,-30.790045)" /></g></svg>

<?xml version="1.0" encoding="UTF-8" standalone="no"?>
<!-- Created with Inkscape (http://www.inkscape.org/) -->

<svg
   width="500"
   height="500"
   viewBox="0 0 500 500"
   version="1.1"
   id="svg1"
   inkscape:version="1.3.2 (091e20ef0f, 2023-11-25, custom)"
   sodipodi:docname="folder.dto.svg"
   xml:space="preserve"
   xmlns:inkscape="http://www.inkscape.org/namespaces/inkscape"
   xmlns:sodipodi="http://sodipodi.sourceforge.net/DTD/sodipodi-0.dtd"
   xmlns:xlink="http://www.w3.org/1999/xlink"
   xmlns="http://www.w3.org/2000/svg"
   xmlns:svg="http://www.w3.org/2000/svg"><sodipodi:namedview
     id="namedview1"
     pagecolor="#505050"
     bordercolor="#eeeeee"
     borderopacity="1"
     inkscape:showpageshadow="0"
     inkscape:pageopacity="0"
     inkscape:pagecheckerboard="0"
     inkscape:deskcolor="#505050"
     inkscape:document-units="px"
     inkscape:zoom="0.96390292"
     inkscape:cx="243.28176"
     inkscape:cy="251.58135"
     inkscape:window-width="1362"
     inkscape:window-height="744"
     inkscape:window-x="0"
     inkscape:window-y="20"
     inkscape:window-maximized="0"
     inkscape:current-layer="layer2"
     showguides="true"><sodipodi:guide
       position="250.02518,350.60736"
       orientation="-0.99997769,0.0066803918"
       id="guide30"
       inkscape:locked="false" /><sodipodi:guide
       position="66.396728,247.89992"
       orientation="0,-1"
       id="guide53"
       inkscape:locked="false" /></sodipodi:namedview><defs
     id="defs1"><linearGradient
       id="linearGradient1"
       inkscape:collect="always"><stop
         style="stop-color:#00f03c;stop-opacity:1;"
         offset="0"
         id="stop1" /><stop
         style="stop-color:#96ffaf;stop-opacity:1;"
         offset="1"
         id="stop2" /></linearGradient><inkscape:path-effect
       effect="mirror_symmetry"
       start_point="341.76098,28.008646"
       end_point="341.76098,211.38431"
       center_point="341.76098,119.69648"
       id="path-effect3"
       is_visible="true"
       lpeversion="1.2"
       lpesatellites=""
       mode="free"
       discard_orig_path="false"
       fuse_paths="true"
       oposite_fuse="false"
       split_items="false"
       split_open="false"
       link_styles="false" /><inkscape:path-effect
       effect="mirror_symmetry"
       start_point="216.08168,129.12039"
       end_point="216.08168,402.6937"
       center_point="216.08168,265.90704"
       id="path-effect2"
       is_visible="true"
       lpeversion="1.2"
       lpesatellites=""
       mode="free"
       discard_orig_path="false"
       fuse_paths="true"
       oposite_fuse="false"
       split_items="false"
       split_open="false"
       link_styles="false" /><linearGradient
       id="swatch61"
       inkscape:swatch="solid"><stop
         style="stop-color:#5090d0;stop-opacity:1;"
         offset="0"
         id="stop61" /></linearGradient><linearGradient
       id="swatch30"
       inkscape:swatch="solid"><stop
         style="stop-color:#f9f9f9;stop-opacity:1;"
         offset="0"
         id="stop30" /></linearGradient><inkscape:perspective
       sodipodi:type="inkscape:persp3d"
       inkscape:vp_x="44.06818 : 315.96746 : 1"
       inkscape:vp_y="0 : 1000 : 0"
       inkscape:vp_z="480.74134 : 298.68846 : 1"
       inkscape:persp3d-origin="250 : 166.66667 : 1"
       id="perspective17" /><inkscape:perspective
       sodipodi:type="inkscape:persp3d"
       inkscape:vp_x="44.06818 : 315.96746 : 1"
       inkscape:vp_y="0 : 1000 : 0"
       inkscape:vp_z="480.74134 : 298.68846 : 1"
       inkscape:persp3d-origin="250 : 166.66667 : 1"
       id="perspective17-7" /><inkscape:perspective
       sodipodi:type="inkscape:persp3d"
       inkscape:vp_x="44.06818 : 315.96746 : 1"
       inkscape:vp_y="0 : 1000 : 0"
       inkscape:vp_z="480.74134 : 298.68846 : 1"
       inkscape:persp3d-origin="250 : 166.66667 : 1"
       id="perspective17-5" /><inkscape:perspective
       sodipodi:type="inkscape:persp3d"
       inkscape:vp_x="44.06818 : 315.96746 : 1"
       inkscape:vp_y="0 : 1000 : 0"
       inkscape:vp_z="480.74134 : 298.68846 : 1"
       inkscape:persp3d-origin="250 : 166.66667 : 1"
       id="perspective17-2" /><linearGradient
       inkscape:collect="always"
       xlink:href="#linearGradient1"
       id="linearGradient2"
       x1="163.80981"
       y1="180.14517"
       x2="550.99927"
       y2="413.7529"
       gradientUnits="userSpaceOnUse" /></defs><g
     inkscape:label="Layer 1"
     inkscape:groupmode="layer"
     id="layer1"><path
       id="rect53-0-5"
       style="opacity:0.222881;fill:#00f03c;fill-opacity:1;fill-rule:nonzero;stroke:#00f03c;stroke-width:22.162;stroke-linecap:butt;stroke-linejoin:bevel;stroke-miterlimit:10;stroke-dasharray:none;stroke-opacity:1;paint-order:normal"
       d="m 463.85552,42.423164 c -19.06075,2.91543 -158.1781,0 -167.5275,0 V 96.595326 L 40.124908,96.595166 V 457.07016 c 59.556727,0 399.686272,0 423.730462,0 z"
       sodipodi:nodetypes="ccccccc"
       transform="translate(0.3239415,-1.6556346)" /><path
       style="fill:none;stroke:#00f03c;stroke-width:50;stroke-linecap:round;stroke-linejoin:bevel;paint-order:markers fill stroke;stroke-opacity:1"
       d="M 43.979119,450.13181 V 98.591456"
       id="path1" /></g><g
     inkscape:groupmode="layer"
     id="layer2"
     inkscape:label="Layer 2"><path
       id="path1-7"
       style="fill:url(#linearGradient2);fill-opacity:1;stroke:none;stroke-width:4.16152;stroke-opacity:1"
       d="M 301.73438 7.9863281 L 301.73438 154.74023 L 257.85156 154.74023 L 278.55078 175.86719 L 182.83008 225.69336 C 180.73114 226.74959 179.407 228.89514 179.39453 231.23633 C 179.39453 231.27363 179.41211 231.30636 179.41211 231.33984 C 179.15807 232.0343 178.97437 232.7661 178.97852 233.53125 L 179.80664 411.39258 C 179.81964 413.67969 181.08225 415.77428 183.09375 416.85547 L 325.35938 491.23828 C 326.28809 491.73316 327.30412 491.98242 328.32031 491.98242 L 328.33398 491.98242 C 328.76294 492.46896 329.24195 492.92658 329.8125 493.26758 C 330.79534 493.85393 331.90173 494.14844 333.01367 494.14844 C 334.03815 494.14844 335.05593 493.89549 335.98047 493.39648 L 476.44727 417.33008 C 478.46293 416.23641 479.72461 414.12867 479.72461 411.8457 L 479.72461 226.79492 C 479.72461 226.74082 479.70313 226.69103 479.70312 226.63281 C 479.69913 226.58711 479.7168 226.54601 479.7168 226.49609 C 479.7098 226.3173 479.6374 226.15514 479.625 225.98047 C 479.5709 225.63948 479.53401 225.29725 479.42969 224.96875 C 479.35459 224.74003 479.25788 224.53679 479.16211 224.31641 C 479.03299 224.02531 478.90538 223.73878 478.73047 223.47266 C 478.60136 223.26472 478.44707 223.07801 478.29297 222.88672 C 478.09723 222.64553 477.89339 222.42106 477.66016 222.20898 C 477.47692 222.04266 477.2805 221.89162 477.07227 221.74609 C 476.93899 221.65469 476.82739 221.52652 476.68164 221.44336 C 476.54838 221.36006 476.39381 221.32656 476.24805 221.25586 C 476.12724 221.19346 476.03093 221.10677 475.91016 221.05273 L 380.10156 174.71094 L 399.66797 154.74023 L 355.78516 154.74023 L 355.78516 7.9863281 L 328.75977 7.9863281 L 301.73438 7.9863281 z M 370.81445 184.18945 L 459.04688 227.48047 L 332.94336 297.88281 L 199.40625 231.32422 L 287.69727 185.20117 L 328.75977 227.11133 L 370.81445 184.18945 z M 467.23047 237.24219 L 467.23047 408.11133 L 339.25586 477.43945 L 339.25586 308.6543 L 467.23047 237.24219 z " /></g></svg>
